projects/seb-pictograms/svg/regular/124-Picto-Regular_black.svg

<svg xmlns="http://www.w3.org/2000/svg" viewBox="0 0 170 170"><path d="M162 39.3H8a3 3 0 00-3 3v111.2a2.9 2.9 0 003 3h154a2.9 2.9 0 003-3V42.3a3 3 0 00-3-3zm-3 6v33.2c-7.3 3.3-37.9 16.4-74 16.4S18.3 81.8 11 78.5V45.3zM60.5 99.1a173.1 173.1 0 0024.5 1.8 160.4 160.4 0 0023.5-1.7v3.9a10.7 10.7 0 01-10.7 10.7H71.2a10.7 10.7 0 01-10.7-10.7zM11 150.5V85.1a195.8 195.8 0 0043.5 13v5a16.7 16.7 0 0016.7 16.7h26.6a16.7 16.7 0 0016.7-16.7v-4.8A201.1 201.1 0 00159 85.1v65.4zM61.2 30.8a13.4 13.4 0 0113.4-13.3h20.8a13.4 13.4 0 0113.4 13.3v.5h6v-.5a19.4 19.4 0 00-19.4-19.3H74.6a19.4 19.4 0 00-19.4 19.3v.5h6z"/></svg>

<svg id="PIKTOGRAM" xmlns="http://www.w3.org/2000/svg" viewBox="0 0 170 170"><title>regular_black</title><metadata><?xpacket begin="﻿" id="W5M0MpCehiHzreSzNTczkc9d"?>
<x:xmpmeta xmlns:x="adobe:ns:meta/" x:xmptk="Adobe XMP Core 5.6-c137 79.159547, 2016/07/07-11:39:24        ">
   <rdf:RDF xmlns:rdf="http://www.w3.org/1999/02/22-rdf-syntax-ns#">
      <rdf:Description rdf:about=""
            xmlns:dc="http://purl.org/dc/elements/1.1/"
            xmlns:xmpMM="http://ns.adobe.com/xap/1.0/mm/"
            xmlns:stEvt="http://ns.adobe.com/xap/1.0/sType/ResourceEvent#"
            xmlns:xmp="http://ns.adobe.com/xap/1.0/">
         <dc:title>
            <rdf:Alt>
               <rdf:li xml:lang="x-default">regular_black</rdf:li>
            </rdf:Alt>
         </dc:title>
         <xmpMM:PreservedFileName>regular_black_12.svg</xmpMM:PreservedFileName>
         <xmpMM:InstanceID>xmp.iid:6eee084d-2eff-3340-a0ea-5c2df50b45f7</xmpMM:InstanceID>
         <xmpMM:DocumentID>xmp.did:6eee084d-2eff-3340-a0ea-5c2df50b45f7</xmpMM:DocumentID>
         <xmpMM:OriginalDocumentID>xmp.did:6eee084d-2eff-3340-a0ea-5c2df50b45f7</xmpMM:OriginalDocumentID>
         <xmpMM:History>
            <rdf:Seq>
               <rdf:li>
                  <rdf:Description>
                     <stEvt:action>saved</stEvt:action>
                     <stEvt:instanceID>xmp.iid:6eee084d-2eff-3340-a0ea-5c2df50b45f7</stEvt:instanceID>
                     <stEvt:when>2017-11-29T15:49:18+01:00</stEvt:when>
                     <stEvt:softwareAgent>Adobe Bridge CC 2017 (Windows)</stEvt:softwareAgent>
                     <stEvt:changed>/metadata</stEvt:changed>
                  </rdf:Description>
               </rdf:li>
            </rdf:Seq>
         </xmpMM:History>
         <xmp:MetadataDate>2017-11-29T15:49:18+01:00</xmp:MetadataDate>
      </rdf:Description>
   </rdf:RDF>
</x:xmpmeta>
                                                                                                    
                                                                                                    
                                                                                                    
                                                                                                    
                                                                                                    
                                                                                                    
                                                                                                    
                                                                                                    
                                                                                                    
                                                                                                    
                                                                                                    
                                                                                                    
                                                                                                    
                                                                                                    
                                                                                                    
                                                                                                    
                                                                                                    
                                                                                                    
                                                                                                    
                                                                                                    
                           
<?xpacket end="w"?></metadata>
<path d="M162,39.3H8a3,3,0,0,0-3,3V153.5a2.9,2.9,0,0,0,3,3H162a2.9,2.9,0,0,0,3-3V42.3A3,3,0,0,0,162,39.3Zm-3,6V78.5c-7.3,3.3-37.9,16.4-74,16.4S18.3,81.8,11,78.5V45.3ZM60.5,99.1A173.1,173.1,0,0,0,85,100.9a160.4,160.4,0,0,0,23.5-1.7v3.9a10.7,10.7,0,0,1-10.7,10.7H71.2a10.7,10.7,0,0,1-10.7-10.7ZM11,150.5V85.1a195.8,195.8,0,0,0,43.5,13v5a16.7,16.7,0,0,0,16.7,16.7H97.8a16.7,16.7,0,0,0,16.7-16.7V98.3A201.1,201.1,0,0,0,159,85.1v65.4Z"/><path d="M61.2,30.8A13.4,13.4,0,0,1,74.6,17.5H95.4a13.4,13.4,0,0,1,13.4,13.3v.5h6v-.5A19.4,19.4,0,0,0,95.4,11.5H74.6A19.4,19.4,0,0,0,55.2,30.8v.5h6Z"/></svg>
